X:3
T:Nancy Spain
S:Josh Perkins
Z:Transcribed by Alan Ng alan@alan-ng.nospam (net) 12 October 2002
N:Melody 4x, Chorus 2x, Melody 2x, Chorus 2x  2 bars
K:C
M:C
|"C"G3E C3G|"F"A3G "C"G3E|"G"D4 D3F|"F"F3E "G"D3C|"C"C4 C4:|*
|"C"c3d e2dc|"F"c3A "C/G"G4|"G"G4 G4|"F"F3E "G"D3C|"C"E4 E4:|**
